X:5
%#Noindex
%%maxstaffsep 70
T:Ave Verum Corpus (Bass viol)
C:William Byrd
L:1/2
M:4/2
I:linebreak $
K:Bb bass 
 G,4 | D,2 F,2- | F, E, D,2- | D,2 G,2 | F,2 B,, B,- |$ B, A, B, B,, | F,3/ E,//F,// G, G,, | %7
w: A-|ve~ ve-|- rum cor-|- pus,~|na- tum de~|- Ma- ri- a|Vir- --- gi-|
 D,2 z E,- | E, D, E,2 | B,,3 D,- | D, C, F,2 |$ F,,2 z C, | G,2 F,2- | F, B,, E,3/E,/ | %14
w: ne:~ Ve-|- re pas-|sum, im-|- mo- la-|tum in|cru- ce|_ pro ho-  mi-|
 D,2 z C,- | C, C, F,2 |$ C, B,,2 C, | D, =E, F,2 | z z2 F,- | F, E, D,2- |$ D, B,, F,3/F,/ | %21
w: ne,~ Cu-|* ius~ la-|tus~ per fo-|ra * tum~|un-|* da~ flu-|* xit~ san-  gui-|
 B,,2 z E,- | E, C, G,2 | C, F,2 D, | B,,2 F,2 |$ z C, G,2 | F, F, F,2- | F, F, B,,2 | z G,, C,2 | %29
w: ne:~ E-|* sto~ no-|bis~ prae gu-|sta- tum~|in~ mor-|tis~ ex- a-|* mi- ne,~|O~ dul-|
 G,,2 z G,, |$ D,2 G,, G, | B,3 A, | G,2 F,2 | F,2 G,3/ F,/ | E,2 D,2 |$ z4 | %36
w: cis,~ O~|pi- e,~ O~|Je- su~|Fi- li~|Ma- ri- * |* ae,||
 D,3/F,/ E,3/D,/ | C,2 D,2 | G,, D, C, B,, |$ A,,2 G,, D,- | D,/F,/ E, D, C, | D, E, D,2 | %42
w: Mi-  se- re-  re~|me- i,~|mi- se- re- re~|me- i,~ mi-|* se- re- re~ me-||
 G,,4 | z G,, C,2 |$ G,,2 z G,, | D,2 G,, G, | B,3 A, | G,2 F,2 | F,2 G,3/F,/ | E,2 D,2 |$ %50
w: i,~|O~ dul-|cis,~ O~|pi- e,~ O~|Je-  su~|Fi- li~|Ma- ri-  *|* ae,~|
 z4 | D,3/F,/ E,3/D,/ | C,2 D,2 | G,, D, C, B,, |$ A,,2 G,, D,- | D,/F,/ E, D, C, | %56
w: |Mi-  se- re-  re~|me- i,~|mi- se- re- re~|me- i,~ mi-|* se- re- re~ me-|
 D, E, D,2 | G,,2 C,3/D,/ | E,/F,/ G, E, C, |$ G,4- |G,4 |] %61
w: |i,~ A- * ||men.|_|


